X:1
T:Park Street, LM
T:Park Street, LM
T:Frederick Marc Antoine Venua, circa 1810
T:Public Domain Courtesy of the Cyber Hymnal™
C:Frederick Marc Antoine Venua, circa 1810
Z:Public Domain
Z:Courtesy of the Cyber Hymnal™
%%score ( 1 2 ) ( 3 4 )
L:1/8
Q:1/4=115
M:3/4
K:G
V:1 treble 
V:2 treble 
V:3 bass 
V:4 bass 
V:1
 [DG]2 [DG]2 [DG]2 | (G3 A) [DB]2 | ([EA]2 [DG]2) [DF]2 | [DG]6 | [DB]2 [DB]2 [DB]2 | %5
 B3- [B^c] [Dd]2 | [FA]3 [DF] ([EG][^CE]) | !fermata!D4 D2 | [DA]4 [DA]2 | [DB]4 [DB]2 | %10
 [Dc]4 [Dc]2 | [DB]6 | [Ed]2 [EB]2 [Ee]2 | [Ec]4 [Ec]2 | (c2 A2) [Dd]2 | [DB]6 | %16
 [DG]2 [DG]2 [DG]2 | (G2 F2) [DG]2 | ([EA]2 [DG]2) [DF]2 | [DG]6 |] %20
V:2
 x6 | D4 x2 | x6 | x6 | x6 | D4 x2 | x6 | D4 D2 | x6 | x6 | x6 | x6 | x6 | x6 | D4 x2 | x6 | x6 | %17
 D4 x2 | x6 | x6 |] %20
V:3
 [G,,B,]2 [B,,D]2 [D,B,]2 | (B,3 C) [G,D]2 | ([C,C]2 [D,B,]2) [D,A,]2 | [G,,B,]6 | %4
 [G,,G,]2 [B,,G,]2 [D,G,]2 | G,4 ([F,A,][G,B,]) | A,4 (A,G,) | !fermata![D,F,]4 [D,F,]2 | %8
 [D,F,]4 [D,F,]2 | [D,G,]4 [D,G,]2 | [D,A,]4 [D,A,]2 | G,6 | [E,^G,]2 [E,G,]2 [E,G,]2 | A,4 A,2 | %14
 [D,F,]4 [D,F,]2 | G,6 | [G,,B,]2 [B,,D]2 [G,,B,]2 | A,4 [B,,G,]2 | ([C,C]2 [D,B,]2) [D,A,]2 | %19
 [G,,B,]6 |] %20
V:4
 x6 | G,4 x2 | x6 | x6 | x6 | G,4 x2 | A,4 A,,2 | x6 | x6 | x6 | x6 | G,6 | x6 | A,4 A,2 | x6 | %15
 G,6 | x6 | (D,3 C,) x2 | x6 | x6 |] %20

